wordpress/wp-content/plugins/google-analytics-for-wordpress/lite/assets/vue/img/bullet.svg

<svg width="16" height="17" viewBox="0 0 16 17" fill="none" xmlns="http://www.w3.org/2000/svg">
	<rect y="0.5" width="16" height="16" rx="8" fill="#EAFAEE"/>
	<path
		d="M11 7.75H8.75V5.5C8.75 5.23438 8.51562 5 8.25 5H7.75C7.46875 5 7.25 5.23438 7.25 5.5V7.75H5C4.71875 7.75 4.5 7.98438 4.5 8.25V8.75C4.5 9.03125 4.71875 9.25 5 9.25H7.25V11.5C7.25 11.7812 7.46875 12 7.75 12H8.25C8.51562 12 8.75 11.7812 8.75 11.5V9.25H11C11.2656 9.25 11.5 9.03125 11.5 8.75V8.25C11.5 7.98438 11.2656 7.75 11 7.75Z"
		fill="#46BF40"/>
</svg>

<svg width="16" height="17" fill="none" xmlns="http://www.w3.org/2000/svg"><rect y=".5" width="16" height="16" rx="8" fill="#EAFAEE"/><path d="M11 7.75H8.75V5.5c0-.266-.234-.5-.5-.5h-.5c-.281 0-.5.234-.5.5v2.25H5c-.281 0-.5.234-.5.5v.5c0 .281.219.5.5.5h2.25v2.25c0 .281.219.5.5.5h.5c.266 0 .5-.219.5-.5V9.25H11c.266 0 .5-.219.5-.5v-.5c0-.266-.234-.5-.5-.5z" fill="#46BF40"/></svg>
